resources/icons/20px/anchor.svg

<svg width="20" height="20" viewBox="0 0 20 20" fill="none" xmlns="http://www.w3.org/2000/svg">
<path fill-rule="evenodd" clip-rule="evenodd" d="M11 5.82929C12.1652 5.41746 13 4.30622 13 3C13 1.34315 11.6569 0 10 0C8.34315 0 7 1.34315 7 3C7 4.30622 7.83481 5.41746 9 5.82929V7H6V9H9V17.917C6.30008 17.4641 4.21158 15.208 4.01512 12.4293L4.29289 12.7071C4.68342 13.0976 5.31658 13.0976 5.70711 12.7071C6.09763 12.3166 6.09763 11.6834 5.70711 11.2929L3.70711 9.29289C3.31658 8.90237 2.68342 8.90237 2.29289 9.29289L0.292893 11.2929C-0.0976311 11.6834 -0.0976311 12.3166 0.292893 12.7071C0.683417 13.0976 1.31658 13.0976 1.70711 12.7071L2.01003 12.4042C2.22054 16.6347 5.71726 20 10 20C14.2827 20 17.7795 16.6347 17.99 12.4042L18.2929 12.7071C18.6834 13.0976 19.3166 13.0976 19.7071 12.7071C20.0976 12.3166 20.0976 11.6834 19.7071 11.2929L17.7071 9.29289C17.3166 8.90237 16.6834 8.90237 16.2929 9.29289L14.2929 11.2929C13.9024 11.6834 13.9024 12.3166 14.2929 12.7071C14.6834 13.0976 15.3166 13.0976 15.7071 12.7071L15.9849 12.4293C15.7884 15.208 13.6999 17.4641 11 17.917V9H14V7H11V5.82929ZM11 3C11 3.55228 10.5523 4 10 4C9.44772 4 9 3.55228 9 3C9 2.44772 9.44772 2 10 2C10.5523 2 11 2.44772 11 3Z" fill="black"/>
</svg>

<svg xmlns="http://www.w3.org/2000/svg" viewBox="0 0 20 20">
  <path d="M11 5.83a3.001 3.001 0 1 0-2 0V7H6v2h3v8.917a6 6 0 0 1-4.985-5.488l.278.278a1 1 0 0 0 1.414-1.414l-2-2a1 1 0 0 0-1.414 0l-2 2a1 1 0 1 0 1.414 1.414l.303-.303a8 8 0 0 0 15.98 0l.303.303a1 1 0 0 0 1.414-1.414l-2-2a1 1 0 0 0-1.414 0l-2 2a1 1 0 0 0 1.414 1.414l.278-.278A6 6 0 0 1 11 17.917V9h3V7h-3zM11 3a1 1 0 1 1-2 0 1 1 0 0 1 2 0"/>
</svg>
